img/cib-html5.svg

<svg xmlns="http://www.w3.org/2000/svg" width="32" height="32" viewBox="0 0 32 32">
  <path d="M2 0h28l-2.547 28.75-11.484 3.25-11.417-3.25zM11.375 13l-0.307-3.625 13.411 0.005 0.307-3.495-17.573-0.005 0.932 10.682h12.167l-0.432 4.568-3.88 1.068-3.938-1.078-0.255-2.813h-3.479l0.443 5.563 7.229 1.932 7.172-1.927 0.99-10.875z"/>
</svg>

<svg id="Layer_1" data-name="Layer 1" xmlns="http://www.w3.org/2000/svg" viewBox="0 0 28 32"><defs><style>.cls-1{fill:#dc4a33;}</style></defs><path class="cls-1" d="M2,0H30L27.45,28.75,16,32,4.55,28.75Zm9.38,13-.31-3.62H24.48l.31-3.49H7.21l.93,10.68H20.31l-.43,4.57L16,22.2l-3.94-1.08-.25-2.81H8.33l.44,5.56L16,25.8l7.17-1.92,1-10.88Z" transform="translate(-2)"/></svg>
